img/setSymbols/official/cmm-s.svg

﻿<?xml version="1.0" encoding="utf-8"?>
<svg version="1.1" id="Layer_1" x="0" y="0" width="149.999" height="137.231" viewBox="0 0 149.999 137.231" enable-background="new 0 0 155 145" xml:space="preserve" xmlns="http://www.w3.org/2000/svg">
  <g id="g67" transform="translate(-2.8,-4.135)">
    <path fill="#ffffff" d="M130.322 25.904V14.536l-28.14-10.4S97.212 22.51 77.8 22.51c-19.416 0-24.386-18.375-24.386-18.375l-28.138 10.4v11.37L2.8 34.18s7.46 13.85 9.707 22.65C15.28 67.694 16.09 81.1 16.09 81.1l18.026 6.55v9.86L77.8 141.366l43.683-43.856v-9.86l18.027-6.55s.81-13.405 3.582-24.268c2.247-8.8 9.707-22.65 9.707-22.65z" id="path1" />
    <linearGradient id="SVGID_1_" gradientUnits="userSpaceOnUse" x1="11.0557" y1="56.7813" x2="144.543" y2="56.7813">
      <stop offset="0" style="stop-color: rgb(98, 45, 118);" id="stop1" />
      <stop offset="0.0372" style="stop-color: rgb(106, 57, 126);" id="stop2" />
      <stop offset="0.107" style="stop-color: rgb(118, 75, 139);" id="stop3" />
      <stop offset="0.15" style="stop-color: rgb(123, 82, 144);" id="stop4" />
      <stop offset="0.1634" style="stop-color: rgb(128, 88, 148);" id="stop5" />
      <stop offset="0.2205" style="stop-color: rgb(149, 110, 163);" id="stop6" />
      <stop offset="0.2805" style="stop-color: rgb(166, 128, 176);" id="stop7" />
      <stop offset="0.344" style="stop-color: rgb(180, 141, 186);" id="stop8" />
      <stop offset="0.4135" style="stop-color: rgb(188, 150, 192);" id="stop9" />
      <stop offset="0.5" style="stop-color: rgb(191, 153, 194);" id="stop10" />
      <stop offset="0.5865" style="stop-color: rgb(188, 150, 192);" id="stop11" />
      <stop offset="0.656" style="stop-color: rgb(180, 141, 186);" id="stop12" />
      <stop offset="0.7195" style="stop-color: rgb(166, 128, 176);" id="stop13" />
      <stop offset="0.7795" style="stop-color: rgb(149, 110, 163);" id="stop14" />
      <stop offset="0.8366" style="stop-color: rgb(128, 88, 148);" id="stop15" />
      <stop offset="0.85" style="stop-color: rgb(123, 82, 144);" id="stop16" />
      <stop offset="0.893" style="stop-color: rgb(118, 75, 139);" id="stop17" />
      <stop offset="0.9628" style="stop-color: rgb(106, 57, 126);" id="stop18" />
      <stop offset="1" style="stop-color: rgb(98, 45, 118);" id="stop19" />
    </linearGradient>
    <path fill="url(#SVGID_1_)" d="M34.116 54.376v27.002l-12.453-4.523c-.453-4.942-1.47-13.74-3.445-21.48-1.436-5.62-4.7-12.892-7.162-17.952l14.22-5.237v16.27zm96.206-22.19v16.268l-8.84 5.923V81.38l12.453-4.524c.454-4.942 1.47-13.74 3.446-21.48 1.436-5.62 4.702-12.892 7.162-17.952z" id="path19" style="fill: url(&quot;#SVGID_1_&quot;);" />
    <linearGradient id="SVGID_2_" gradientUnits="userSpaceOnUse" x1="77.800301" y1="133.0146" x2="77.800301" y2="58.324699">
      <stop offset="0" style="stop-color: rgb(191, 153, 194);" id="stop20" />
      <stop offset="0.0497" style="stop-color: rgb(175, 137, 182);" id="stop21" />
      <stop offset="0.1494" style="stop-color: rgb(140, 101, 157);" id="stop22" />
      <stop offset="0.2" style="stop-color: rgb(123, 82, 144);" id="stop23" />
      <stop offset="0.45" style="stop-color: rgb(123, 82, 144);" id="stop24" />
      <stop offset="0.5359" style="stop-color: rgb(118, 75, 139);" id="stop25" />
      <stop offset="0.6757" style="stop-color: rgb(106, 57, 126);" id="stop26" />
      <stop offset="0.75" style="stop-color: rgb(98, 45, 118);" id="stop27" />
      <stop offset="1" style="stop-color: rgb(98, 45, 118);" id="stop28" />
    </linearGradient>
    <polygon fill="url(#SVGID_2_)" points="56.305 69.241 40.011 58.324 40.011 95.075 77.8 133.015 115.589 95.075 115.589 58.324 99.294 69.241 99.294 97.679 77.8 119.412 56.305 97.679" id="polygon28" style="fill: url(&quot;#SVGID_2_&quot;);" />
    <linearGradient id="SVGID_3_" gradientUnits="userSpaceOnUse" x1="31.169901" y1="36.8862" x2="124.4287" y2="36.8862">
      <stop offset="0" style="stop-color: rgb(98, 45, 118);" id="stop29" />
      <stop offset="0.0496" style="stop-color: rgb(106, 57, 126);" id="stop30" />
      <stop offset="0.1427" style="stop-color: rgb(118, 75, 139);" id="stop31" />
      <stop offset="0.2" style="stop-color: rgb(123, 82, 144);" id="stop32" />
      <stop offset="0.2115" style="stop-color: rgb(128, 88, 148);" id="stop33" />
      <stop offset="0.2604" style="stop-color: rgb(149, 110, 163);" id="stop34" />
      <stop offset="0.3118" style="stop-color: rgb(166, 128, 176);" id="stop35" />
      <stop offset="0.3663" style="stop-color: rgb(180, 141, 186);" id="stop36" />
      <stop offset="0.4259" style="stop-color: rgb(188, 150, 192);" id="stop37" />
      <stop offset="0.5" style="stop-color: rgb(191, 153, 194);" id="stop38" />
      <stop offset="0.5741" style="stop-color: rgb(188, 150, 192);" id="stop39" />
      <stop offset="0.6337" style="stop-color: rgb(180, 141, 186);" id="stop40" />
      <stop offset="0.6882" style="stop-color: rgb(166, 128, 176);" id="stop41" />
      <stop offset="0.7396" style="stop-color: rgb(149, 110, 163);" id="stop42" />
      <stop offset="0.7885" style="stop-color: rgb(128, 88, 148);" id="stop43" />
      <stop offset="0.8" style="stop-color: rgb(123, 82, 144);" id="stop44" />
      <stop offset="0.8573" style="stop-color: rgb(118, 75, 139);" id="stop45" />
      <stop offset="0.9504" style="stop-color: rgb(106, 57, 126);" id="stop46" />
      <stop offset="1" style="stop-color: rgb(98, 45, 118);" id="stop47" />
    </linearGradient>
    <path fill="url(#SVGID_3_)" d="M77.8 33.14 99.294 54.87v7.275l25.135-16.84V18.642l-18.98-7.015c-4.136 7.716-12.874 16.778-27.65 16.778S54.286 19.34 50.154 11.625L31.17 18.64v26.67l25.135 16.838v-7.275z" id="path47" style="fill: url(&quot;#SVGID_3_&quot;);" />
    <linearGradient id="SVGID_4_" gradientUnits="userSpaceOnUse" x1="62.1982" y1="76.275398" x2="93.400398" y2="76.275398">
      <stop offset="0" style="stop-color: rgb(98, 45, 118);" id="stop48" />
      <stop offset="0.013" style="stop-color: rgb(104, 53, 124);" id="stop49" />
      <stop offset="0.0426" style="stop-color: rgb(114, 69, 134);" id="stop50" />
      <stop offset="0.0718" style="stop-color: rgb(121, 79, 142);" id="stop51" />
      <stop offset="0.1" style="stop-color: rgb(123, 82, 144);" id="stop52" />
      <stop offset="0.1153" style="stop-color: rgb(128, 88, 148);" id="stop53" />
      <stop offset="0.1805" style="stop-color: rgb(149, 110, 163);" id="stop54" />
      <stop offset="0.2491" style="stop-color: rgb(166, 128, 176);" id="stop55" />
      <stop offset="0.3218" style="stop-color: rgb(180, 141, 186);" id="stop56" />
      <stop offset="0.4011" style="stop-color: rgb(188, 150, 192);" id="stop57" />
      <stop offset="0.5" style="stop-color: rgb(191, 153, 194);" id="stop58" />
      <stop offset="0.5989" style="stop-color: rgb(188, 150, 192);" id="stop59" />
      <stop offset="0.6782" style="stop-color: rgb(180, 141, 186);" id="stop60" />
      <stop offset="0.7509" style="stop-color: rgb(166, 128, 176);" id="stop61" />
      <stop offset="0.8195" style="stop-color: rgb(149, 110, 163);" id="stop62" />
      <stop offset="0.8847" style="stop-color: rgb(128, 88, 148);" id="stop63" />
      <stop offset="0.9" style="stop-color: rgb(123, 82, 144);" id="stop64" />
      <stop offset="0.9265" style="stop-color: rgb(120, 77, 141);" id="stop65" />
      <stop offset="0.9613" style="stop-color: rgb(111, 65, 131);" id="stop66" />
      <stop offset="1" style="stop-color: rgb(98, 45, 118);" id="stop67" />
    </linearGradient>
    <polygon fill="url(#SVGID_4_)" points="93.4 57.294 77.8 41.52 62.198 57.294 62.198 95.257 77.8 111.03 93.4 95.257" id="polygon67" style="fill: url(&quot;#SVGID_4_&quot;);" />
  </g>
</svg>

<?xml version="1.0" encoding="UTF-8" standalone="no"?>
<!-- Generator: Adobe Illustrator 15.1.0, SVG Export Plug-In . SVG Version: 6.00 Build 0)  -->

<svg
   version="1.1"
   id="Layer_1"
   x="0px"
   y="0px"
   width="149.99899"
   height="137.231"
   viewBox="0 0 149.99899 137.231"
   enable-background="new 0 0 155 145"
   xml:space="preserve"
   xmlns="http://www.w3.org/2000/svg"
   xmlns:svg="http://www.w3.org/2000/svg"><defs
   id="defs67" />
<g
   id="Layer_1_1_"
   transform="translate(-2.8,-4.135)">
</g>
<g
   id="Layer_3"
   display="none"
   transform="translate(-2.8,-4.135)">
</g>
<g
   id="g67"
   transform="translate(-2.8,-4.135)">
	<path
   fill="#ffffff"
   d="M 130.322,25.904 V 14.536 L 102.182,4.135 c 0,0 -4.969,18.375 -24.383,18.375 C 58.384,22.51 53.414,4.135 53.414,4.135 L 25.276,14.536 V 25.904 L 2.8,34.182 c 0,0 7.46,13.85 9.707,22.65 2.773,10.862 3.582,24.268 3.582,24.268 l 18.027,6.549 V 97.51 L 77.8,141.366 121.483,97.51 V 87.649 L 139.51,81.1 c 0,0 0.809,-13.405 3.582,-24.268 2.247,-8.801 9.707,-22.65 9.707,-22.65 z"
   id="path1" />
	<linearGradient
   id="SVGID_1_"
   gradientUnits="userSpaceOnUse"
   x1="11.0557"
   y1="56.7813"
   x2="144.543"
   y2="56.7813">
		<stop
   offset="0"
   style="stop-color:#622D76"
   id="stop1" />
		<stop
   offset="0.0372"
   style="stop-color:#6A397E"
   id="stop2" />
		<stop
   offset="0.107"
   style="stop-color:#764B8B"
   id="stop3" />
		<stop
   offset="0.15"
   style="stop-color:#7B5290"
   id="stop4" />
		<stop
   offset="0.1634"
   style="stop-color:#805894"
   id="stop5" />
		<stop
   offset="0.2205"
   style="stop-color:#956EA3"
   id="stop6" />
		<stop
   offset="0.2805"
   style="stop-color:#A680B0"
   id="stop7" />
		<stop
   offset="0.344"
   style="stop-color:#B48DBA"
   id="stop8" />
		<stop
   offset="0.4135"
   style="stop-color:#BC96C0"
   id="stop9" />
		<stop
   offset="0.5"
   style="stop-color:#BF99C2"
   id="stop10" />
		<stop
   offset="0.5865"
   style="stop-color:#BC96C0"
   id="stop11" />
		<stop
   offset="0.656"
   style="stop-color:#B48DBA"
   id="stop12" />
		<stop
   offset="0.7195"
   style="stop-color:#A680B0"
   id="stop13" />
		<stop
   offset="0.7795"
   style="stop-color:#956EA3"
   id="stop14" />
		<stop
   offset="0.8366"
   style="stop-color:#805894"
   id="stop15" />
		<stop
   offset="0.85"
   style="stop-color:#7B5290"
   id="stop16" />
		<stop
   offset="0.893"
   style="stop-color:#764B8B"
   id="stop17" />
		<stop
   offset="0.9628"
   style="stop-color:#6A397E"
   id="stop18" />
		<stop
   offset="1"
   style="stop-color:#622D76"
   id="stop19" />
	</linearGradient>
	<path
   fill="url(#SVGID_1_)"
   d="M 34.116,54.376 V 81.378 L 21.663,76.855 C 21.21,71.913 20.192,63.114 18.218,55.375 16.782,49.755 13.517,42.483 11.056,37.423 l 14.221,-5.237 v 16.269 z m 96.206,-22.191 v 16.269 l -8.84,5.923 v 27.002 l 12.453,-4.523 c 0.454,-4.942 1.47,-13.741 3.446,-21.48 1.435,-5.62 4.701,-12.892 7.161,-17.952 z"
   id="path19"
   style="fill:url(#SVGID_1_)" />
	<linearGradient
   id="SVGID_2_"
   gradientUnits="userSpaceOnUse"
   x1="77.800301"
   y1="133.0146"
   x2="77.800301"
   y2="58.324699">
		<stop
   offset="0"
   style="stop-color:#BF99C2"
   id="stop20" />
		<stop
   offset="0.0497"
   style="stop-color:#AF89B6"
   id="stop21" />
		<stop
   offset="0.1494"
   style="stop-color:#8C659D"
   id="stop22" />
		<stop
   offset="0.2"
   style="stop-color:#7B5290"
   id="stop23" />
		<stop
   offset="0.45"
   style="stop-color:#7B5290"
   id="stop24" />
		<stop
   offset="0.5359"
   style="stop-color:#764B8B"
   id="stop25" />
		<stop
   offset="0.6757"
   style="stop-color:#6A397E"
   id="stop26" />
		<stop
   offset="0.75"
   style="stop-color:#622D76"
   id="stop27" />
		<stop
   offset="1"
   style="stop-color:#622D76"
   id="stop28" />
	</linearGradient>
	<polygon
   fill="url(#SVGID_2_)"
   points="56.305,69.241 40.011,58.324 40.011,95.075 77.8,133.015 115.589,95.075 115.589,58.324 99.294,69.241 99.294,97.679 77.8,119.412 56.305,97.679 "
   id="polygon28"
   style="fill:url(#SVGID_2_)" />
	<linearGradient
   id="SVGID_3_"
   gradientUnits="userSpaceOnUse"
   x1="31.169901"
   y1="36.8862"
   x2="124.4287"
   y2="36.8862">
		<stop
   offset="0"
   style="stop-color:#622D76"
   id="stop29" />
		<stop
   offset="0.0496"
   style="stop-color:#6A397E"
   id="stop30" />
		<stop
   offset="0.1427"
   style="stop-color:#764B8B"
   id="stop31" />
		<stop
   offset="0.2"
   style="stop-color:#7B5290"
   id="stop32" />
		<stop
   offset="0.2115"
   style="stop-color:#805894"
   id="stop33" />
		<stop
   offset="0.2604"
   style="stop-color:#956EA3"
   id="stop34" />
		<stop
   offset="0.3118"
   style="stop-color:#A680B0"
   id="stop35" />
		<stop
   offset="0.3663"
   style="stop-color:#B48DBA"
   id="stop36" />
		<stop
   offset="0.4259"
   style="stop-color:#BC96C0"
   id="stop37" />
		<stop
   offset="0.5"
   style="stop-color:#BF99C2"
   id="stop38" />
		<stop
   offset="0.5741"
   style="stop-color:#BC96C0"
   id="stop39" />
		<stop
   offset="0.6337"
   style="stop-color:#B48DBA"
   id="stop40" />
		<stop
   offset="0.6882"
   style="stop-color:#A680B0"
   id="stop41" />
		<stop
   offset="0.7396"
   style="stop-color:#956EA3"
   id="stop42" />
		<stop
   offset="0.7885"
   style="stop-color:#805894"
   id="stop43" />
		<stop
   offset="0.8"
   style="stop-color:#7B5290"
   id="stop44" />
		<stop
   offset="0.8573"
   style="stop-color:#764B8B"
   id="stop45" />
		<stop
   offset="0.9504"
   style="stop-color:#6A397E"
   id="stop46" />
		<stop
   offset="1"
   style="stop-color:#622D76"
   id="stop47" />
	</linearGradient>
	<path
   fill="url(#SVGID_3_)"
   d="m 77.8,33.139 21.494,21.733 v 7.275 L 124.429,45.308 V 18.641 l -18.98,-7.016 C 101.314,19.341 92.576,28.403 77.801,28.403 63.024,28.403 54.285,19.34 50.153,11.625 L 31.17,18.641 v 26.668 l 25.135,16.839 v -7.275 z"
   id="path47"
   style="fill:url(#SVGID_3_)" />
	<linearGradient
   id="SVGID_4_"
   gradientUnits="userSpaceOnUse"
   x1="62.1982"
   y1="76.275398"
   x2="93.400398"
   y2="76.275398">
		<stop
   offset="0"
   style="stop-color:#622D76"
   id="stop48" />
		<stop
   offset="0.013"
   style="stop-color:#68357C"
   id="stop49" />
		<stop
   offset="0.0426"
   style="stop-color:#724586"
   id="stop50" />
		<stop
   offset="0.0718"
   style="stop-color:#794F8E"
   id="stop51" />
		<stop
   offset="0.1"
   style="stop-color:#7B5290"
   id="stop52" />
		<stop
   offset="0.1153"
   style="stop-color:#805894"
   id="stop53" />
		<stop
   offset="0.1805"
   style="stop-color:#956EA3"
   id="stop54" />
		<stop
   offset="0.2491"
   style="stop-color:#A680B0"
   id="stop55" />
		<stop
   offset="0.3218"
   style="stop-color:#B48DBA"
   id="stop56" />
		<stop
   offset="0.4011"
   style="stop-color:#BC96C0"
   id="stop57" />
		<stop
   offset="0.5"
   style="stop-color:#BF99C2"
   id="stop58" />
		<stop
   offset="0.5989"
   style="stop-color:#BC96C0"
   id="stop59" />
		<stop
   offset="0.6782"
   style="stop-color:#B48DBA"
   id="stop60" />
		<stop
   offset="0.7509"
   style="stop-color:#A680B0"
   id="stop61" />
		<stop
   offset="0.8195"
   style="stop-color:#956EA3"
   id="stop62" />
		<stop
   offset="0.8847"
   style="stop-color:#805894"
   id="stop63" />
		<stop
   offset="0.9"
   style="stop-color:#7B5290"
   id="stop64" />
		<stop
   offset="0.9265"
   style="stop-color:#784D8D"
   id="stop65" />
		<stop
   offset="0.9613"
   style="stop-color:#6F4183"
   id="stop66" />
		<stop
   offset="1"
   style="stop-color:#622D76"
   id="stop67" />
	</linearGradient>
	<polygon
   fill="url(#SVGID_4_)"
   points="93.4,57.294 77.8,41.52 62.198,57.294 62.198,95.257 77.8,111.03 93.4,95.257 "
   id="polygon67"
   style="fill:url(#SVGID_4_)" />
</g>
</svg>
